!!!!SEGMENT: pl-sa--185-a-v-15--001_luna-georgius--missa-in-f-kyrie.krn
!!!cenid: 17xx:526
!!!COM: Luna, Georgius
!!!COM-rism: pe41010079
!!!CDT:
!!!CNT:
!!!OTL: Missa in F – Kyrie
!!!PDT:
!!!AGN: Sacred; Mass
!!!SMS-siglum: PL-SA
!!!SMS-shelfmark: 185/A V 15
!!!NIFC-rismID: 1001035901
!!!URL-scan: http://bc.bdsandomierz.pl/dlibra/publication/1522/edition/1490/content
!!!ONB-nifc: UWAGA: części Mszy: Kyrie, Gloria, Patrem, Sanctus, Benedictus, Agnus Dei
!!!SMS-variant:
!!!SMS-altvar:
**kern	**fb	**dynam	**kern	**dynam	**kern	**dynam	**kern	**text	**kern	**text	**kern	**text	**kern	**kern
*part8	*	*part8	*part7	*part7	*part6	*part6	*part5	*part5	*part4	*part4	*part3	*part3	*part2	*part1
*staff8	*	*	*staff7	*	*staff6	*	*staff5	*staff5	*staff4	*staff4	*staff3	*staff3	*staff2	*staff1
*I"Organo	*	*	*I"Violino Secundo.	*	*I"Violino Primo	*	*I"Basso.	*	*I"Canto Secundo.	*	*I"Canto.	*	*I"Cornu Secundo ex F.	*I"Cornu Primo ex F.
*I'org	*	*	*I'vl II	*	*I'vl I	*	*I'B	*	*I'C II	*	*I'C I	*	*I'cor II	*I'cor I
*clefF4	*	*	*clefG2	*	*clefG2	*	*clefF4	*	*clefC1	*	*clefC1	*	*clefG2	*clefG2
*	*	*	*	*	*	*	*	*	*	*	*	*	*ITrd4c7	*ITrd4c7
*k[b-]	*	*	*k[b-]	*	*k[b-]	*	*k[b-]	*	*k[b-]	*	*k[b-]	*	*k[b-]	*k[b-]
*M2/2	*	*	*M2/2	*	*M2/2	*	*M2/2	*	*M2/2	*	*M2/2	*	*M2/2	*M2/2
*met(c|)	*	*	*met(c|)	*	*met(c|)	*	*met(c|)	*	*met(c|)	*	*met(c|)	*	*met(c|)	*met(c|)
=1	=1	=1	=1	=1	=1	=1	=1	=1	=1	=1	=1	=1	=1	=1
*2\right	*above	*	*2\right	*	*2\right	*	*2\right	*	*2\right	*	*2\right	*	*2\right	*2\right
!LO:TX:a:t=Adagio	!	!	!LO:TX:a:t=Adagio	!	!LO:TX:a:t=Adagio	!	!LO:TX:a:t=Adagio	!	!LO:TX:a:t=Adagio	!	!LO:TX:a:t=Adagio	!	!LO:TX:a:t=Adagio	!LO:TX:a:t=Adagio
!LO:TX:b:t=Kyrie.	!	!	!	!	!LO:SIC:s=Kyrie.	!	!	!	!	!	!	!	!	!
!	!	!	!LO:TX:b:t=Kyrie.	!	!LO:TX:b:t=Kyre.	!	!	!	!	!	!	!	!LO:TX:b:t=Kyrie.	!LO:TX:b:t=Kyrie.
4.F\	.	.	4.cc\	.	4.aa\	.	4.F\	Ky-	4.a\	Ky-	4.cc\	Ky-	4.f\	4.a\
8F\	.	.	8cc\	.	8aa\	.	8F\	-ri-	8a\	-ri-	8cc\	-ri-	8f\	8a\
2F;\	.	.	2cc;\	.	2aa;\	.	2F;\	-e	2a;\	-e	2cc;\	-e	2f;\	2a;\
=2	=2	=2	=2	=2	=2	=2	=2	=2	=2	=2	=2	=2	=2	=2
4F\	.	.	8r	.	8r	.	2r	.	2r	.	2r	.	2r	2r
.	.	.	(>16cc\LL	.	(16aa\LL	.	.	.	.	.	.	.	.	.
.	.	.	16b-\JJ)	.	16gg\JJ)	.	.	.	.	.	.	.	.	.
4r	.	.	16dd\LL	.	16bb-\LL	.	.	.	.	.	.	.	.	.
!	!	!	!	!	!	!	!	!	!	!	!	!	!	!
.	.	.	(>16cc\	.	(>16aa\	.	.	.	.	.	.	.	.	.
.	.	.	16b-\)	.	16gg\)	.	.	.	.	.	.	.	.	.
.	.	.	16a\JJ	.	16ff\JJ	.	.	.	.	.	.	.	.	.
4.C/	.	.	4.g/	.	4.ee\	.	4.C/	Ky-	4.g/	Ky-	4.ee\	Ky-	4.c/	4.g\
8C/	.	.	8g/	.	8ee\	.	8C/	-ri-	8g/	-ri-	8ee\	-ri-	8c/	8g\
=3	=3	=3	=3	=3	=3	=3	=3	=3	=3	=3	=3	=3	=3	=3
2C;/	.	.	2g;/	.	2ee;\	.	2C;</	-e	2g;</	-e	2ee;\	-e	2c;/	2g;\
4C/	.	.	8r	.	8r	.	2r	.	8r	.	8r	.	2r	2r
.	.	.	(<16b-/LL	.	(>16gg\LL	.	.	.	(>16b-\LL	e-	(>16gg\LL	e-	.	.
.	.	.	16a/JJ)	.	16ff\JJ)	.	.	.	16a\JJ)	.	16ee\JJ)	.	.	.
4r	.	.	16cc/LL	.	16aa\LL	.	.	.	16cc\LL	-ley-	16aa\LL	-ley-	.	.
!	!	!	!	!	!	!	!	!	!	!	!	!	!	!
.	.	.	(<16b-/	.	(>16gg\	.	.	.	(>16b-\	.	(>16gg\	.	.	.
.	.	.	16a/)	.	16ff\)	.	.	.	16a\)	.	16ff\)	.	.	.
.	.	.	16g/JJ	.	16ee\JJ	.	.	.	16g\JJ	.	16ee\JJ	.	.	.
=4	=4	=4	=4	=4	=4	=4	=4	=4	=4	=4	=4	=4	=4	=4
4F\	.	.	8a/L	.	8ff\L	.	0r	.	4a\	-son	4ff\	-son	0r	0r
.	.	.	(<16a/L	.	(>16ff\L	.	.	.	.	.	.	.	.	.
.	.	.	16g/JJ)	.	16ee\JJ)	.	.	.	.	.	.	.	.	.
8r	.	.	16b-/LL	.	16dd\LL	.	.	.	4r	.	4r	.	.	.
.	.	.	(16a/	.	(>16cc\	.	.	.	.	.	.	.	.	.
8F\	.	.	16g/)	.	16b-\)	.	.	.	.	.	.	.	.	.
!	!	!	!	!	!	!	!	!	!	!	!	!	!	!LO:TX:a:t=2
.	.	.	16f/JJ	.	16a\JJ	.	.	.	.	.	.	.	.	.
8c\L	X 5	.	8e/L	.	8g/L	.	.	.	2r	.	2r	.	.	.
8c\	6 4	.	16g/L	.	16b-/L	.	.	.	.	.	.	.	.	.
.	.	.	16f/JJ	.	16a/JJ	.	.	.	.	.	.	.	.	.
.	.	.	8qqa/	.	.	.	.	.	.	.	.	.	.	.
!	!	!	!	!	!LO:TX:a:t=t	!	!	!	!	!	!	!	!	!
8c\	X 5	.	4g/	.	4b-/	.	.	.	.	.	.	.	.	.
8c\J	X 7	.	.	.	.	.	.	.	.	.	.	.	.	.
=5	=5	=5	=5	=5	=5	=5	=5	=5	=5	=5	=5	=5	=5	=5
!	!	!	!	!LO:DY:t=p.	!	!	!	!	!	!	!	!	!	!
!	!	!	!l	!LO:DY:a	!	!	!	!	!	!	!	!	!	!
4F\	.	.	8f/L	p	8a/L	.	.	.	8r	.	8r	.	.	.
.	.	.	8f/	.	8f/	.	.	.	(>16a\LL	e-	(>16ff\LL	e-	.	.
.	.	.	.	.	.	.	.	.	16g\JJ)	.	16ee\JJ)	.	.	.
4r	.	.	8f/	.	8f/	.	.	.	16b-\LL	-lej-	16dd\LL	-ley-	.	.
.	.	.	.	.	.	.	.	.	(>16a\	.	(>16cc\	.	.	.
.	.	.	8f/J	.	8f/J	.	.	.	16g\)	.	16b-\)	.	.	.
.	.	.	.	.	.	.	.	.	16f\JJ	.	16a\JJ	.	.	.
!	!	!	!	!	!LO:LB:g=original	!	!	!	!	!	!	!	!	!
2r	.	.	8c/L	.	8d/L	.	.	.	8e/L	.	8g\L	.	.	.
.	.	.	8c/	.	8c/	.	.	.	(<16g/L	.	16b-\L	.	.	.
.	.	.	.	.	.	.	.	.	16f/JJ)	.	16a\JJ	.	.	.
!	!	!	!	!	!	!	!	!	!	!	!LO:TX:a:t=t	!	!	!
.	.	.	.	.	.	.	.	.	8qqa/	.	8qqa/	.	.	.
.	.	.	8c/	.	8c/	.	.	.	4g/	.	4b-\	.	.	.
.	.	.	8c/J	.	8c/J	.	.	.	.	.	.	.	.	.
!	!	!	!LO:LB:g=original	!	!	!	!	!	!	!	!LO:LB:g=original	!	!	!
=6	=6	=6	=6	=6	=6	=6	=6	=6	=6	=6	=6	=6	=6	=6
*Xtuplet	*	*	*	*	*	*	*	*	*	*	*	*	*	*
!	!	!	!	!	!LO:TX:a:t=P:problem:mixed beam	!	!	!	!	!	!	!	!	!
4r	.	.	8f/L	.	8f/L	.	8r	.	8f/	-son	8a\	-son'	8r	8r
.	.	.	(>8a/	.	8cc\	.	8F\	e-	8a\	e-	8cc\	e-	16f\LL	16f\LL
.	.	.	.	.	.	.	.	.	.	.	.	.	16f\J	16f\JJ
16F\LL	.	.	8b-/)	.	8dd\	.	4F\	-ley-	(>8b-\L	-lei-	(>8dd\L	-lej-	8f\	8f\L
16E-X\JJ	.	.	.	.	.	.	.	.	.	.	.	.	.	.
24D/LL	X 5-:	.	8cc/J	.	8ee-X\J	.	.	.	8cc\J)	.	8ee-X\J)	.	8f\J	8f\J
24C/	.	.	.	.	.	.	.	.	.	.	.	.	.	.
24BB-/JJ	.	.	.	.	.	.	.	.	.	.	.	.	.	.
!	!	!	!	!	!	!	!	!	!LO:LB:g=original	!	!	!	!	!
24BB-/LL	X 5-:	.	8b-\L	.	8dd\L	.	8BB-/	-son	8b-\	-son	8dd\	-son	8f\L	8f\L
24AA/	.	.	.	.	.	.	.	.	.	.	.	.	.	.
24GG/JJ	.	.	.	.	.	.	.	.	.	.	.	.	.	.
*	*	*	*	*	*	*	*	*ij	*	*ij	*	*ij	*	*
24BB-/LL	.	.	8bn\	.	8dd\	.	8G\	e-	8bn\	e-	8dd\	e-	16g\L	16g\L
24G/ 24E-	.	.	.	.	.	.	.	.	.	.	.	.	.	.
.	.	.	.	.	.	.	.	.	.	.	.	.	16g\JJ	16g\JJ
24F/JJ 24D	.	.	.	.	.	.	.	.	.	.	.	.	.	.
24En\LL	.X 6:	.	8cc\	.	8een\	.	4G\	-ley-	(>8cc\L	-lei-	(>8een\L	-lej-	8g\L	8g\L
24D\	.	.	.	.	.	.	.	.	.	.	.	.	.	.
24C\JJ	.	.	.	.	.	.	.	.	.	.	.	.	.	.
!LO:LB:g=original	!	!	!	!	!	!	!	!	!	!	!	!	!	!
24BBn/LL	X 5:	.	8dd\J	.	8ff\J	.	.	.	8dd\J)	.	8ff\J)	.	8g\J	8g\J
24AA/	.	.	.	.	.	.	.	.	.	.	.	.	.	.
24GG/JJ	.	.	.	.	.	.	.	.	.	.	.	.	.	.
=7	=7	=7	=7	=7	=7	=7	=7	=7	=7	=7	=7	=7	=7	=7
8C/L	X 5-	.	8cc\L	.	8ee\	.	8C/	-son	8cc\	-son	8ee\	-son'	8g\	8g\
*	*	*	*	*	*	*	*	*Xij	*	*Xij	*	*Xij	*	*
8E/J	.	.	8b-\J	.	4gg\	.	8E\	e-	8b-X\	e-	4gg\	e-	4g\	4b-\
!LO:TX:a:t=P:problem:mixed beam	!	!	!	!	!	!	!LO:TX:a:t=P:problem:mixed beam	!	!	!	!	!	!	!
8F\L	X 5	.	4a/	.	.	.	(>8F\L	-ley-	(>4a\	-lei-	.	.	.	.
8BBn/J	X 7	.	.	.	8ff\	.	8BBn/J)	.	.	.	8ff\	-ley-	8f\	8a\
!LO:TX:a:t=P:problem:mixed beam	!	!	!	!	!	!	!LO:TX:a:t=P:problem:mixed beam	!	!	!	!	!	!	!
8C/L	X 3	.	4g/	.	4ee\	.	8C/L	.	4g/)	.	4ee\	.	4c/	4gT\
8B-X\	.	.	.	.	.	.	8B-X\J	.	.	.	.	.	.	.
!	!	!	!	!	!	!	!	!	!	!	!	!	!LO:TX:a:t=P:problem:mixed beam	!
8A\	X 6:	.	8f/L	.	8ff\L	.	8A\	-son	8f/	.	8ff\	.	8c/L	8a\L
8F\J	.	.	8a/J	.	8cc\J	.	8F\	e-	8a\	.	8cc\	.	8a\J	8cc\J
!	!	!	!	!	!	!	!LO:LB:g=original	!	!	!	!	!	!	!
=8	=8	=8	=8	=8	=8	=8	=8	=8	=8	=8	=8	=8	=8	=8
!LO:TX:a:t=P:problem:mixed beam	!	!	!	!	!	!	!	!	!	!	!LO:TX:a:t=t	!	!	!
8E\L	6 5	.	4g/	.	4b-/	.	(>4E\	-ley-	(<4g/	.	4b-\	.	4g\	4b-\
8E\	.	.	.	.	.	.	.	.	.	.	.	.	.	.
.	.	.	.	.	.	.	.	.	.	.	8qqb-/	.	.	.
!	!	!	!	!	!	!	!	!	!	!	!	!	!LO:TX:a:B:t=t	!
8F\	.	.	4f/	.	4a/	.	4F\)	.	4f/)	.	4a\	.	4f\	4at\
8FF/J	.	.	.	.	.	.	.	.	.	.	.	.	.	.
.	.	.	8qqf/	.	.	.	.	.	.	.	8qqa/	.	.	8qqa/
2C;</	.	.	2e/	.	2g;/	.	2C/	-son	2e/	-son	2g;</	-son	2c;>/	2g\
!	!	!	!	!	!	!	!	!	!	!	!	!	!LO:LB:g=original	!LO:LB:g=original
=9||	=9||	=9||	=9||	=9||	=9||	=9||	=9||	=9||	=9||	=9||	=9||	=9||	=9||	=9||
*M3/8	*	*	*M3/8	*	*M3/8	*	*M3/8	*	*M3/8	*	*M3/8	*	*M3/8	*M3/8
!LO:TX:b:t=Kyrie	!	!	!LO:TX:b:t=Kyrie et Dona nobis	!	!LO:TX:b:t=Kyrie et Dona nobis.	!	!	!	!	!	!	!	!LO:TX:b:t=Kyrie et Dona nobis	!LO:TX:b:t=Kyrie et Dona nobis
!LO:TX:a:t=All(egr)o non molto.	!	!	!LO:TX:a:t=Allo non molto.	!	!LO:TX:a:t=All(egr)o non molto	!	!LO:TX:a:t=all(egr)o	!	!LO:TX:a:t=All(egr)o	!	!LO:TX:a:t=All(egr)o.	!	!LO:TX:a:t=All(egr)o	!LO:TX:a:t=All(egr)o
!	!	!	!	!	!	!	!LO:N:vis=00	!	!LO:N:vis=00	!	!LO:N:vis=00	!	!	!
8F\L	.	.	8a/L	.	4.ff\	.	1.r	.	1.r	.	1.r	.	8f\L	8a\L
8F\	.	.	8a/	.	.	.	.	.	.	.	.	.	8f\	8a\
8F\J	.	.	8a/J	.	.	.	.	.	.	.	.	.	8f\J	8a\J
=10	=10	=10	=10	=10	=10	=10	=10	=10	=10	=10	=10	=10	=10	=10
8E\L	.	.	8g/L	.	4.cc\	.	.	.	.	.	.	.	8c/L	8g\L
8E\	.	.	8g/	.	.	.	.	.	.	.	.	.	8c/	8g\
8E\J	.	.	8g/J	.	.	.	.	.	.	.	.	.	8c/J	8g\J
=11	=11	=11	=11	=11	=11	=11	=11	=11	=11	=11	=11	=11	=11	=11
8D\L	.	.	8f/L	.	4.f/	.	.	.	.	.	.	.	8f\L	8a\L
8D\	.	.	8f/	.	.	.	.	.	.	.	.	.	8f\	8a\
8D\J	.	.	8f/J	.	.	.	.	.	.	.	.	.	8f\J	8a\J
=12	=12	=12	=12	=12	=12	=12	=12	=12	=12	=12	=12	=12	=12	=12
8AA/L	X 6	.	8cc\L	.	4.ff\	.	.	.	.	.	.	.	8f\L	8cc\L
8AA/	.	.	8cc\	.	.	.	.	.	.	.	.	.	8f\	8cc\
8AA/J	.	.	8cc\J	.	.	.	.	.	.	.	.	.	8f\J	8cc\J
=13	=13	=13	=13	=13	=13	=13	=13	=13	=13	=13	=13	=13	=13	=13
*	*	*	*Xtuplet	*	*Xtuplet	*	*	*	*	*	*	*	*	*
!LO:TX:a:t=P:problem:mixed beam	!	!	!	!	!	!	!	!	!	!	!LO:N:vis=00	!	!	!
!	!	!	!	!	!	!	!LO:N:vis=00	!	!LO:N:vis=00	!	!	!	!	!
8BB-/L	.	.	8dd\	.	8dd\	.	1.r	.	1.r	.	1.r	.	8f\	8f\
!	!	!	!LO:TUP:a:problem:klamra łukowa bez numeru	!	!LO:TUP:a:problem:klamra łukowa bez numeru	!	!	!	!	!	!	!	!	!
8B-\	.	.	24dd\LL	.	24dd\LL	.	.	.	.	.	.	.	8r	8r
.	.	.	24ee\	.	24ee\	.	.	.	.	.	.	.	.	.
.	.	.	24ff\JJ	.	24ff\JJ	.	.	.	.	.	.	.	.	.
!	!	!	!LO:TUP:a:problem:klamra łukowa bez numeru	!	!LO:TUP:a:problem:klamra łukowa bez numeru	!	!	!	!	!	!	!	!	!
8A\J	.X 3	.	24gg\LL	.	24gg\LL	.	.	.	.	.	.	.	8r	8r
.	.	.	24aa\	.	24aa\	.	.	.	.	.	.	.	.	.
.	.	.	24bb-\JJ	.	24bb-\JJ	.	.	.	.	.	.	.	.	.
=14	=14	=14	=14	=14	=14	=14	=14	=14	=14	=14	=14	=14	=14	=14
8r	.	.	8cc\	.	8cc\	.	.	.	.	.	.	.	8f\	8f\
!	!	!	!LO:TUP:a:problem:klamra łukowa bez numeru	!	!LO:TUP:a:problem:klamra łukowa bez numeru	!	!	!	!	!	!	!	!	!
8A\L	X 6	.	24cc\LL	.	24cc\LL	.	.	.	.	.	.	.	8r	8r
.	.	.	24dd\	.	24dd\	.	.	.	.	.	.	.	.	.
.	.	.	24ee\JJ	.	24ee\JJ	.	.	.	.	.	.	.	.	.
!	!	!	!	!	!LO:LB:g=original	!	!	!	!	!	!	!	!	!
!	!	!	!LO:TUP:a:problem:klamra łukowa bez numeru	!	!LO:TUP:a:problem:klamra łukowa bez numeru	!	!	!	!	!	!	!	!	!
8F\J	.	.	24ff\LL	.	24ff\LL	.	.	.	.	.	.	.	8r	8r
.	.	.	24gg\	.	24gg\	.	.	.	.	.	.	.	.	.
.	.	.	24aa\JJ	.	24aa\JJ	.	.	.	.	.	.	.	.	.
!LO:LB:g=original	!	!	!	!	!	!	!	!	!	!	!	!	!	!
=15	=15	=15	=15	=15	=15	=15	=15	=15	=15	=15	=15	=15	=15	=15
.	.	.	8qqcc/	.	8qqcc/	.	.	.	.	.	.	.	.	.
8G\L	X 3	.	4.b-/	.	4.b-\	.	.	.	.	.	.	.	8r	8r
8E\	6 5:	.	.	.	.	.	.	.	.	.	.	.	8f\L	8b-\L
8C\J	.	.	.	.	.	.	.	.	.	.	.	.	8g\J	8b-\J
=16	=16	=16	=16	=16	=16	=16	=16	=16	=16	=16	=16	=16	=16	=16
!	!	!	!	!	!LO:TX:a:t=P:problem:mixed beam	!	!	!	!	!	!	!	!	!
4F\	.	.	8a/L	.	8a/L	.	.	.	.	.	.	.	8c/	8a\
.	.	.	8a/	.	8ff\	.	.	.	.	.	.	.	8r	8r
8G\	X 5	.	8b-/J	.	8ee\J	.	.	.	.	.	.	.	8r	8r
=17	=17	=17	=17	=17	=17	=17	=17	=17	=17	=17	=17	=17	=17	=17
!	!	!	!	!LO:DY:t=p.	!	!	!	!	!	!	!	!	!	!
!	!	!	!	!LO:DY:a	!	!	!LO:N:vis=00	!	!LO:N:vis=00	!	!LO:N:vis=00	!	!	!
4A\	X 5-	.	8cc\	p	16r	.	1.r	.	1.r	.	1.r	.	8f\	8f\
!	!	!	!	!	!	!LO:DY:rj	!	!	!	!	!	!	!	!
!	!	!	!	!	!	!LO:DY:t=p.	!	!	!	!	!	!	!	!
!	!	!	!	!	!	!LO:DY:a	!	!	!	!	!	!	!	!
.	.	.	.	.	16ee-X\	p	.	.	.	.	.	.	.	.
.	.	.	8cc#X\L	.	8cc#X\L	.	.	.	.	.	.	.	8r	8r
8B-\	X 3	.	8dd\J	.	8dd\J	.	.	.	.	.	.	.	8r	8r
=18	=18	=18	=18	=18	=18	=18	=18	=18	=18	=18	=18	=18	=18	=18
!	!	!	!	!LO:DY:t=f.	!	!	!	!	!	!	!	!	!	!
!	!	!	!	!LO:DY:a	!	!	!	!	!	!	!	!	!	!
4G\	X n	.	8bn\	f	8r	.	.	.	.	.	.	.	8g\	8g\
!	!	!	!	!	!	!LO:DY:rj	!	!	!	!	!	!	!	!
!	!	!	!	!	!	!LO:DY:t=f.	!	!	!	!	!	!	!	!
!	!	!	!	!	!	!LO:DY:a	!	!	!	!	!	!	!	!
.	.	.	(>8b\L	.	8gg\L	f	.	.	.	.	.	.	8r	8r
8A\	X 6	.	8cc\J)	.	8ff#X\J	.	.	.	.	.	.	.	8r	8r
=19	=19	=19	=19	=19	=19	=19	=19	=19	=19	=19	=19	=19	=19	=19
!	!	!	!	!LO:DY:a	!	!	!	!	!	!	!	!	!	!
4Bn\	X 5	.	8dd\	p	16r	.	.	.	.	.	.	.	8g\	8g\
!	!	!	!	!	!	!LO:DY:t=p.	!	!	!	!	!	!	!	!
!	!	!	!	!	!	!LO:DY:a	!	!	!	!	!	!	!	!
.	.	.	.	.	16ffn\	p	.	.	.	.	.	.	.	.
.	.	.	8dd#X\L	.	(>8dd#X\L	.	.	.	.	.	.	.	8r	8r
8c\	.	.	8ee\J	.	8een\J)	.	.	.	.	.	.	.	8r	8r
=20	=20	=20	=20	=20	=20	=20	=20	=20	=20	=20	=20	=20	=20	=20
!	!	!	!	!	!	!LO:DY:t=f.	!	!	!	!	!	!	!	!
!	!	!	!	!LO:DY:a	!	!LO:DY:a	!	!	!	!	!	!	!	!
8A\L	X 6	.	16.ff\LL	f	16.ff\LL	f	.	.	.	.	.	.	8f\L	8f\L
.	.	.	32aa\JJk	.	32aa\JJk	.	.	.	.	.	.	.	.	.
8A\	.	.	8cc\L	.	8cc\L	.	.	.	.	.	.	.	8f\	8f\
8A\J	.	.	8cc#X\J	.	8cc#X\J	.	.	.	.	.	.	.	8f\J	8f\J
=21	=21	=21	=21	=21	=21	=21	=21	=21	=21	=21	=21	=21	=21	=21
!	!	!	!	!	!	!	!LO:N:vis=00	!	!LO:N:vis=00	!	!LO:N:vis=00	!	!	!
8B-X\L	.	.	4dd\	.	4dd\	.	1.r	.	1.r	.	1.r	.	8f\L	8f\L
8B-\	.	.	.	.	.	.	.	.	.	.	.	.	8f\	8f\
8B-\J	.	.	8bb-\	.	8bb-\	.	.	.	.	.	.	.	8b-\J	8dd\J
!	!	!	!	!	!	!	!	!	!	!	!	!	!	!LO:LB:g=original
=22	=22	=22	=22	=22	=22	=22	=22	=22	=22	=22	=22	=22	=22	=22
!	!	!	!LO:TUP:a:problem:klamra łukowa bez numeru	!	!LO:TUP:a:problem:klamra łukowa bez numeru	!	!	!	!	!	!	!	!	!
8c\L	6 4	.	24aa\LL	.	24aa\LL	.	.	.	.	.	.	.	8a\	8cc\
.	.	.	24gg\	.	24gg\	.	.	.	.	.	.	.	.	.
.	.	.	24ff\JJ	.	24ff\JJ	.	.	.	.	.	.	.	.	.
!	!	!	!	!	!	!	!	!	!	!	!	!	!	!LO:TX:a:t=t
8c\	7 5	.	4gg\	.	4gg\	.	.	.	.	.	.	.	4g\	4b-\
8c\J	.	.	.	.	.	.	.	.	.	.	.	.	.	.
!	!	!	!	!	!	!	!	!	!	!	!	!	!LO:LB:g=original	!
=23	=23	=23	=23	=23	=23	=23	=23	=23	=23	=23	=23	=23	=23	=23
8d\L	5 3	.	4ff\	.	4.ff\	.	.	.	.	.	.	.	8f\L	8a\L
8d\	.	.	.	.	.	.	.	.	.	.	.	.	8f\	8a\
8d\J	.	.	8r	.	.	.	.	.	.	.	.	.	8f\J	8a\J
=24	=24	=24	=24	=24	=24	=24	=24	=24	=24	=24	=24	=24	=24	=24
!	!	!	!	!LO:DY:t=p.	!	!	!	!	!	!	!	!	!	!
!	!	!	!	!LO:DY:a	!	!	!	!	!	!	!	!	!	!
8A\L	X 6	.	16.ff\LL	p	16.ff\LL	.	.	.	.	.	.	.	4f\	4f\
.	.	.	32aa\JJk	.	32aa\JJk	.	.	.	.	.	.	.	.	.
8A\	.	.	8cc\L	.	8cc\L	.	.	.	.	.	.	.	.	.
8A\J	.	.	8cc#X\J	.	8cc#X\J	.	.	.	.	.	.	.	8r	8r
!	!	!	!	!	!LO:LB:g=original	!	!	!	!	!	!	!	!	!
=25	=25	=25	=25	=25	=25	=25	=25	=25	=25	=25	=25	=25	=25	=25
!	!	!	!	!	!LO:TX:a:t=t	!	!LO:N:vis=00	!	!LO:N:vis=00	!	!LO:N:vis=0	!	!	!
8B-\L	X 3	.	4dd\	.	4dd\	.	1.r	.	1.r	.	2.r	.	8r	8r
8B-\	.	.	.	.	.	.	.	.	.	.	.	.	8r	8r
.	.	.	.	.	8qqcc/	.	.	.	.	.	.	.	.	.
8B-\J	X 6	.	8b-\	.	8b-\	.	.	.	.	.	.	.	8f\	8b-\
!	!	!	!LO:LB:g=original	!	!	!	!	!	!	!	!	!	!	!
=26	=26	=26	=26	=26	=26	=26	=26	=26	=26	=26	=26	=26	=26	=26
!	!	!	!	!	!	!LO:DY:rj	!	!	!	!	!	!	!	!
!	!	!	!	!LO:DY:t=f.	!	!LO:DY:t=f.	!	!	!	!	!	!	!	!
!	!	!	!	!LO:DY:a	!	!LO:DY:a	!	!	!	!	!	!	!	!
!	!	!	!LO:TUP:b:problem:klamra łukowa bez numeru	!	!LO:TUP:b:problem:klamra łukowa bez numeru	!	!	!	!	!	!	!	!	!
8c\L	6 4	.	24a/LL	f	24a/LL	f	.	.	.	.	.	.	8f\L	8a\
.	.	.	24g/	.	24g/	.	.	.	.	.	.	.	.	.
.	.	.	24f/JJ	.	24f/JJ	.	.	.	.	.	.	.	.	.
!	!	!	!	!	!LO:TX:a:t=t	!	!	!	!	!	!	!	!	!
8c\	5 3	.	4gT/	.	4g/	.	.	.	.	.	.	.	8c\	4g\
8c\J	.	.	.	.	.	.	.	.	.	.	.	.	8c\J	.
!LO:LB:g=original	!	!	!	!	!	!	!	!	!	!	!	!	!	!
=27	=27	=27	=27	=27	=27	=27	=27	=27	=27	=27	=27	=27	=27	=27
8F/L	.	.	4f/	.	4f/	.	.	.	.	.	4.r	.	8A/L	8f\L
8C/	.	.	.	.	.	.	.	.	.	.	.	.	16A/L	16c\L
.	.	.	.	.	.	.	.	.	.	.	.	.	16A/	16c\
8AA/J	.	.	8r	.	8r	.	.	.	.	.	.	.	16A/	16c\
.	.	.	.	.	.	.	.	.	.	.	.	.	16A/JJ	16c\JJ
=28	=28	=28	=28	=28	=28	=28	=28	=28	=28	=28	=28	=28	=28	=28
!	!	!	!	!	!	!LO:DY:rj	!	!	!	!	!	!	!	!
!	!	!LO:DY:t=p.	!	!c	!	!LO:DY:t=p.	!	!	!	!	!	!	!	!
!LO:TX:a:t=P:problem:mixed beam	!	!LO:DY:a	!	!	!	!LO:DY:a	!	!	!	!	!	!	!	!
8FF/L	.	p	8a/L	p	4.ff\	p	.	.	.	.	4.ff\	Ky-	4F/	4A/
8F\	.	.	8a/	.	.	.	.	.	.	.	.	.	.	.
8F\J	.	.	8a/J	.	.	.	.	.	.	.	.	.	8r	8r
=29	=29	=29	=29	=29	=29	=29	=29	=29	=29	=29	=29	=29	=29	=29
!	!	!	!	!	!	!	!LO:N:vis=00	!	!LO:N:vis=00	!	!	!	!LO:N:vis=00	!LO:N:vis=00
8E\L	X 6	.	8g/L	.	4.cc\	.	1.r	.	1.r	.	4.cc\	-ri-	1.r	1.r
8E\	.	.	8g/	.	.	.	.	.	.	.	.	.	.	.
8E\J	.	.	8g/J	.	.	.	.	.	.	.	.	.	.	.
!	!	!	!	!	!	!	!	!	!	!	!LO:LB:g=original	!	!	!
=30	=30	=30	=30	=30	=30	=30	=30	=30	=30	=30	=30	=30	=30	=30
8D\L	.	.	8f/L	.	4.f/	.	.	.	.	.	4.f/	-e	.	.
8D\	.	.	8f/	.	.	.	.	.	.	.	.	.	.	.
8D\J	.	.	8f/J	.	.	.	.	.	.	.	.	.	.	.
=31	=31	=31	=31	=31	=31	=31	=31	=31	=31	=31	=31	=31	=31	=31
8AA/L	X 6	.	8cc\L	.	4.ff\	.	.	.	.	.	4.ff\	e-	.	.
8AA/	.	.	8cc\	.	.	.	.	.	.	.	.	.	.	.
8AA/J	.	.	8cc\J	.	.	.	.	.	.	.	.	.	.	.
=32	=32	=32	=32	=32	=32	=32	=32	=32	=32	=32	=32	=32	=32	=32
*	*	*	*	*	*	*	*	*	*	*	*Xtuplet	*	*	*
!LO:TX:a:t=P:problem:mixed beam	!	!	!	!	!	!	!	!	!	!	!	!	!	!
8BB-/L	.	.	4f/	.	8dd\	.	.	.	.	.	8dd\	-ley-	.	.
!	!	!	!	!	!LO:TUP:a:problem:klamra łukowa bez numeru	!	!	!	!	!	!LO:TUP:a:problem:klamra łukowa bez numeru	!	!	!
8B-\	.	.	.	.	24dd\LL	.	.	.	.	.	24dd\LL	.	.	.
.	.	.	.	.	24ee\	.	.	.	.	.	24ee\	.	.	.
.	.	.	.	.	24ff\JJ	.	.	.	.	.	24ff\JJ	.	.	.
!	!	!	!	!	!LO:TUP:a:problem:klamra łukowa bez numeru	!	!	!	!	!	!	!	!	!
8G\J	.	.	8dd\	.	24gg\LL	.	.	.	.	.	24gg\LL	.	.	.
.	.	.	.	.	24aa\	.	.	.	.	.	24aa\	.	.	.
.	.	.	.	.	24bb-\JJ	.	.	.	.	.	24bb-\JJ	.	.	.
=33	=33	=33	=33	=33	=33	=33	=33	=33	=33	=33	=33	=33	=33	=33
!	!	!	!	!	!	!	!LO:N:vis=00	!	!LO:N:vis=00	!	!	!	!LO:N:vis=00	!LO:N:vis=00
8r	.	.	8r	.	8cc\	.	1.r	.	1.r	.	8cc\	.	1.r	1.r
!	!	!	!LO:TX:a:t=P:problem:mixed beam	!	!	!	!	!	!	!	!	!	!	!
!	!	!	!	!	!LO:TUP:a:problem:klamra łukowa bez numeru	!	!	!	!	!	!	!	!	!
8A\L	X 6	.	8cc\L	.	24cc\LL	.	.	.	.	.	24cc\LL	.	.	.
.	.	.	.	.	24dd\	.	.	.	.	.	24dd\	.	.	.
.	.	.	.	.	24ee\JJ	.	.	.	.	.	24ee\JJ	.	.	.
!	!	!	!	!	!LO:TUP:a:problem:klamra łukowa bez numeru	!	!	!	!	!	!LO:TUP:a:problem:klamra łukowa bez numeru	!	!	!
8F\J	.	.	8c/J	.	24ff\LL	.	.	.	.	.	24ff\LL	.	.	.
.	.	.	.	.	24gg\	.	.	.	.	.	24gg\	.	.	.
.	.	.	.	.	24aa\JJ	.	.	.	.	.	24aa\JJ	.	.	.
=34	=34	=34	=34	=34	=34	=34	=34	=34	=34	=34	=34	=34	=34	=34
!	!	!	!	!	!	!	!	!	!	!	!LO:TX:a:t=t	!	!	!
.	.	.	.	.	(8qqcc/	.	.	.	.	.	8qqcc/	.	.	.
8G\L	X 3	.	8e/L	.	4.b-/)	.	.	.	.	.	4.b-\	.	.	.
8E\	X 5	.	8f/	.	.	.	.	.	.	.	.	.	.	.
8C\J	.	.	8e/J	.	.	.	.	.	.	.	.	.	.	.
=35	=35	=35	=35	=35	=35	=35	=35	=35	=35	=35	=35	=35	=35	=35
4F\	X 6	.	4c/	.	8a/	.	.	.	.	.	8a\	-son'	.	.
.	.	.	.	.	16f/LL	.	.	.	.	.	16f/LL	e-	.	.
.	.	.	.	.	(<16a/	.	.	.	.	.	16a/	.	.	.
8F\	X 64	.	8a/	.	16g/)	.	.	.	.	.	16g/	.	.	.
.	.	.	.	.	16f/JJ	.	.	.	.	.	16f/JJ	.	.	.
!	!	!	!	!	!LO:LB:g=original	!	!	!	!	!	!	!	!	!
=36	=36	=36	=36	=36	=36	=36	=36	=36	=36	=36	=36	=36	=36	=36
8E\L	6 5:	.	8g/L	.	8cc\L	.	.	.	.	.	8cc\L	-ley-	.	.
8D\	.	.	8f/	.	8dd\	.	.	.	.	.	8dd\	.	.	.
8C\J	.	.	8e/J	.	8ee\J	.	.	.	.	.	8ee\J	.	.	.
=37	=37	=37	=37	=37	=37	=37	=37	=37	=37	=37	=37	=37	=37	=37
!	!	!	!	!	!	!	!LO:N:vis=00	!	!LO:N:vis=00	!	!	!	!LO:N:vis=0	!LO:N:vis=0
8BBn/L	6 5:	.	8d/L	.	4.ff\	.	1.r	.	1.r	.	4.ff\	.	2.r	2.r
8AA/	.	.	8c/	.	.	.	.	.	.	.	.	.	.	.
8GG/J	.	.	8Bn/J	.	.	.	.	.	.	.	.	.	.	.
=38	=38	=38	=38	=38	=38	=38	=38	=38	=38	=38	=38	=38	=38	=38
8C/L	X 3	.	4.c/	.	(>8ee\L	.	.	.	.	.	8ee\L	.	.	.
8D/	X 7	.	.	.	8ff\	.	.	.	.	.	8ff\	.	.	.
8E/J	X 6	.	.	.	8gg\J)	.	.	.	.	.	8gg\J	.	.	.
!LO:LB:g=original	!	!	!	!	!	!	!	!	!	!	!	!	!	!
=39	=39	=39	=39	=39	=39	=39	=39	=39	=39	=39	=39	=39	=39	=39
4F\	X 3	.	4c/	.	8gg#X\L	.	.	.	.	.	8gg#X\L	.	4.r	4.r
.	.	.	.	.	8aa\J	.	.	.	.	.	8aa\	.	.	.
8F#X\	X 7	.	8e/	.	8ccn\	.	.	.	.	.	8cc\J	.	.	.
!	!	!	!LO:LB:g=original	!	!	!	!	!	!	!	!LO:LB:g=original	!	!	!
=40	=40	=40	=40	=40	=40	=40	=40	=40	=40	=40	=40	=40	=40	=40
8G\L	6 4	.	8e/L	.	8cc\L	.	.	.	.	.	8cc\	.	8r	8r
8G\	5 4:	.	8d/J	.	8bn\J	.	.	.	.	.	8bn\	-son	16g\LL	16g\LL
.	.	.	.	.	.	.	.	.	.	.	.	.	16g\	16g\
8Fn\J	.	.	8r	.	8r	.	.	.	.	.	8r	.	16g\	16g\
.	.	.	.	.	.	.	.	.	.	.	.	.	16g\JJ	16g\JJ
=41	=41	=41	=41	=41	=41	=41	=41	=41	=41	=41	=41	=41	=41	=41
!	!	!	!	!	!	!	!LO:N:vis=00	!	!LO:N:vis=00	!	!	!	!	!
8E\L	X 6	.	8g/L	.	8gg\L	.	1.r	.	1.r	.	8gg\L	.	4g\	4g\
8E\	.	.	8g/	.	8ee\	.	.	.	.	.	8ee\	e-	.	.
8E\J	.	.	8g/J	.	8cc\J	.	.	.	.	.	8cc\J	.	8r	8r
=42	=42	=42	=42	=42	=42	=42	=42	=42	=42	=42	=42	=42	=42	=42
!	!	!	!	!	!	!	!	!	!	!	!	!	!LO:N:vis=0	!LO:N:vis=0
8F\L	X 5	.	8a/L	.	8cc#X\L	.	.	.	.	.	8cc#X\L	-ley-	2.r	2.r
8F\	.	.	8a/	.	8dd\	.	.	.	.	.	8dd\	.	.	.
.	X 6	.	.	.	.	.	.	.	.	.	.	.	.	.
8F\J	.	.	8a/J	.	8aa\J	.	.	.	.	.	8aa\J	.	.	.
=43	=43	=43	=43	=43	=43	=43	=43	=43	=43	=43	=43	=43	=43	=43
8G\L	6 4	.	8e/L	.	16.gg\LL	.	.	.	.	.	(>16gg\LL	.	.	.
.	.	.	.	.	.	.	.	.	.	.	16ff\J)	.	.	.
.	.	.	.	.	32ff\JJk	.	.	.	.	.	.	.	.	.
8G\	.	.	8g/	.	8ee\L	.	.	.	.	.	8ee\	.	.	.
8G\J	7 4	.	8f/J	.	8dd\J	.	.	.	.	.	8dd\J	.	.	.
=44	=44	=44	=44	=44	=44	=44	=44	=44	=44	=44	=44	=44	=44	=44
8A\L	X 3	.	8e/L	.	4ccn\	.	.	.	.	.	4ccn\	-son	8r	8r
8A\	.	.	8e/	.	.	.	.	.	.	.	.	.	8c/L	8c/L
8A\J	.	.	8e/J	.	8r	.	.	.	.	.	8r	.	8c/J	8c/J
=45	=45	=45	=45	=45	=45	=45	=45	=45	=45	=45	=45	=45	=45	=45
!	!	!	!	!	!	!	!LO:N:vis=00	!	!LO:N:vis=0	!	!	!	!	!
8E\L	X 6	.	8g/L	.	16r	.	1.r	.	2.r	.	16r	.	4c/	4c/
.	.	.	.	.	16gg\	.	.	.	.	.	16gg\	e-	.	.
8E\	.	.	8g/	.	16ff\LL	.	.	.	.	.	16ff\LL	-ley-	.	.
.	.	.	.	.	(>16ee\	.	.	.	.	.	16ee\	.	.	.
8E\J	.	.	8g/J	.	16dd\)	.	.	.	.	.	16dd\	.	8r	8r
.	.	.	.	.	16cc\JJ	.	.	.	.	.	16cc\JJ	.	.	.
=46	=46	=46	=46	=46	=46	=46	=46	=46	=46	=46	=46	=46	=46	=46
!	!	!	!	!	!	!	!	!	!	!	!	!	!LO:N:vis=00	!LO:N:vis=00
8F\L	.	.	8a/L	.	(>16a\LL	.	.	.	.	.	16a\LL	.	1.r	1.r
.	.	.	.	.	16cc#X\	.	.	.	.	.	16cc#X\	.	.	.
8F\	.	.	8a/	.	16dd\	.	.	.	.	.	16dd\	.	.	.
.	.	.	.	.	16aa\)	.	.	.	.	.	16aa\	.	.	.
8F\J	.	.	8a/J	.	16gg\	.	.	.	.	.	16gg\	.	.	.
.	.	.	.	.	16ff\JJ	.	.	.	.	.	16ff\JJ	.	.	.
=47	=47	=47	=47	=47	=47	=47	=47	=47	=47	=47	=47	=47	=47	=47
8G\L	6 4	.	8cc\L	.	24ee\LL	.	.	.	4.r	.	24ee\LL	.	.	.
.	.	.	.	.	24dd\	.	.	.	.	.	(>24dd\	.	.	.
.	.	.	.	.	24ccn\JJ	.	.	.	.	.	24cc\JJ)	.	.	.
!	!	!	!	!	!LO:TX:a:t=t	!	!	!	!	!	!LO:TX:a:t=t	!	!	!
8G\	X 4	.	8cc\	.	4dd\	.	.	.	.	.	4dd\	.	.	.
8G\J	X 4	.	8bn\J	.	.	.	.	.	.	.	.	.	.	.
!	!	!	!	!	!LO:LB:g=original	!	!	!	!	!	!	!	!	!
=48	=48	=48	=48	=48	=48	=48	=48	=48	=48	=48	=48	=48	=48	=48
!	!	!	!LO:TX:a:t=P:problem:mixed beam	!	!	!	!	!	!LO:TX:a:t=Solo	!	!	!	!	!
8c\L	.	.	8cc\L	.	4.cc\	.	.	.	4.cc\	Ky-	4cc\	-son	.	.
8c\	.	.	8e/	.	.	.	.	.	.	.	.	.	.	.
8c\J	.	.	8e/J	.	.	.	.	.	.	.	8r	.	.	.
=49	=49	=49	=49	=49	=49	=49	=49	=49	=49	=49	=49	=49	=49	=49
!	!	!	!	!	!	!	!LO:N:vis=00	!	!	!	!LO:N:vis=00	!	!	!
8Bn\L	X 6	.	8d/L	.	4.g/	.	1.r	.	4.g/	-ri-	1.r	.	.	.
8B\	.	.	8d/	.	.	.	.	.	.	.	.	.	.	.
8B\J	.	.	8d/J	.	.	.	.	.	.	.	.	.	.	.
!LO:LB:g=original	!	!	!	!	!	!	!	!	!	!	!	!	!	!
=50	=50	=50	=50	=50	=50	=50	=50	=50	=50	=50	=50	=50	=50	=50
!	!	!	!	!	!	!	!	!	!	!	!	!	!LO:N:vis=00	!LO:N:vis=00
8A\L	.	.	8d/L	.	4.c/	.	.	.	4.c/	-e	.	.	1.r	1.r
8A\	.	.	8d/	.	.	.	.	.	.	.	.	.	.	.
8A\J	.	.	8d/J	.	.	.	.	.	.	.	.	.	.	.
=51	=51	=51	=51	=51	=51	=51	=51	=51	=51	=51	=51	=51	=51	=51
8E\L	X 6	.	8g/L	.	4.cc\	.	.	.	4.cc\	e-	.	.	.	.
8E\	.	.	8g/	.	.	.	.	.	.	.	.	.	.	.
8E\J	.	.	8g/J	.	.	.	.	.	.	.	.	.	.	.
!	!	!	!	!	!	!	!	!	!LO:LB:g=original	!	!	!	!	!
=52	=52	=52	=52	=52	=52	=52	=52	=52	=52	=52	=52	=52	=52	=52
*	*	*	*	*	*	*	*	*	*Xtuplet	*	*	*	*	*
4F\	.	.	4.a/	.	8a/	.	.	.	8a\	-ley-	.	.	.	.
!	!	!	!	!	!LO:TUP:a:problem:klamra łukowa bez numeru	!	!	!	!LO:TUP:a:problem:klamra łukowa bez numeru	!	!	!	!	!
.	.	.	.	.	24a\LL	.	.	.	24a\LL	.	.	.	.	.
.	.	.	.	.	24bn\	.	.	.	24bn\	.	.	.	.	.
.	.	.	.	.	24cc\JJ	.	.	.	24cc\JJ	.	.	.	.	.
!	!	!	!	!	!LO:TUP:a:problem:klamra łukowa bez numeru	!	!	!	!LO:TUP:a:problem:klamra łukowa bez numeru	!	!	!	!	!
8D\	.	.	.	.	24dd\LL	.	.	.	24dd\LL	.	.	.	.	.
.	.	.	.	.	24ee\	.	.	.	24ee\	.	.	.	.	.
.	.	.	.	.	24ff\JJ	.	.	.	24ff\JJ	.	.	.	.	.
=53	=53	=53	=53	=53	=53	=53	=53	=53	=53	=53	=53	=53	=53	=53
!	!	!	!	!	!	!	!LO:N:vis=00	!	!	!	!LO:N:vis=00	!	!	!
8r	.	.	4g/	.	8g/	.	1.r	.	8g\	.	1.r	.	.	.
!	!	!	!	!	!LO:TUP:b:problem:klamra łukowa bez numeru	!	!	!	!LO:TUP:a:problem:klamra łukowa bez numeru	!	!	!	!	!
8E\L	X 6	.	.	.	24g/LL	.	.	.	24g\LL	.	.	.	.	.
.	.	.	.	.	24a/	.	.	.	24a\	.	.	.	.	.
.	.	.	.	.	24bn/JJ	.	.	.	24bn\JJ	.	.	.	.	.
!	!	!	!	!	!LO:TUP:a:problem:klamra łukowa bez numeru	!	!	!	!LO:TUP:a:problem:klamra łukowa bez numeru	!	!	!	!	!
8C\J	.	.	8G/	.	24cc\LL	.	.	.	24cc\LL	.	.	.	.	.
.	.	.	.	.	24dd\	.	.	.	24dd\	.	.	.	.	.
!	!	!	!	!	!	!	!	!	!LO:TX:t=P:problem:błąd renderowania - złe wyświetlanie ostatniej szesnastki w takcie	!	!	!	!	!
.	.	.	.	.	24ee\JJ	.	.	.	24ee\JJ	.	.	.	.	.
=54	=54	=54	=54	=54	=54	=54	=54	=54	=54	=54	=54	=54	=54	=54
.	.	.	.	.	8qqg/	.	.	.	.	.	.	.	.	.
!	!	!	!	!	!	!	!	!	!	!	!	!	!LO:N:vis=00	!LO:N:vis=00
8D/L	X 3	.	8A/L	.	4.f/	.	.	.	8g/	.	.	.	1.r	1.r
8BB-/	6 5	.	8d/	.	.	.	.	.	4f/	.	.	.	.	.
8GG/J	.	.	8Bn/J	.	.	.	.	.	.	.	.	.	.	.
!	!	!	!LO:LB:g=original	!	!	!	!	!	!	!	!	!	!	!
=55	=55	=55	=55	=55	=55	=55	=55	=55	=55	=55	=55	=55	=55	=55
!	!	!	!	!	!	!LO:DY:t=f.	!	!	!	!	!	!	!	!
!	!	!	!	!	!LO:TX:a:t=P:problem:mixed beam	!LO:DY:a	!	!	!	!	!	!	!	!
8C/L	.	.	8c/L	.	8e/L	f	.	.	8e/	-son	.	.	.	.
8C/	X 4	.	8e/	.	8cc\	.	.	.	8cc\	Chri-	.	.	.	.
8D/J	X 6	.	8f/J	.	8bn\J	.	.	.	8bn\	-ste	.	.	.	.
=56	=56	=56	=56	=56	=56	=56	=56	=56	=56	=56	=56	=56	=56	=56
4E\	X -	.	8g/L	.	16r	.	.	.	16r	.	.	.	.	.
.	.	.	.	.	16b-X/	.	.	.	16b-X\	e-	.	.	.	.
.	.	.	8c/	.	8g#X/L	.	.	.	8g#X\	-ley-	.	.	.	.
8F\	X 5	.	8c/J	.	8a/J	.	.	.	8a\	-son	.	.	.	.
=57	=57	=57	=57	=57	=57	=57	=57	=57	=57	=57	=57	=57	=57	=57
!	!	!	!	!	!	!LO:DY:t=f.	!	!	!	!	!	!	!	!
!	!	!	!	!	!	!LO:DY:a	!LO:N:vis=00	!	!	!	!LO:N:vis=00	!	!	!
8D\L	X #	.	8f#X/L	.	8r	f	1.r	.	8r	.	1.r	.	.	.
8D\	.	.	8f#/	.	8dd\L	.	.	.	8dd\	Chri-	.	.	.	.
8E\J	X 6|	.	8g/J	.	8cc#X\J	.	.	.	8cc#X\	-ste	.	.	.	.
=58	=58	=58	=58	=58	=58	=58	=58	=58	=58	=58	=58	=58	=58	=58
!	!	!	!	!	!	!	!	!	!	!	!	!	!LO:N:vis=00	!LO:N:vis=00
8F#X\L	6 5	.	8a/L	.	16r	.	.	.	16r	.	.	.	1.r	1.r
!	!	!	!	!	!	!LO:DY:t=p.	!	!	!	!	!	!	!	!
!	!	!	!	!	!	!LO:DY:a	!	!	!	!	!	!	!	!
.	.	.	.	.	16ccn\	p	.	.	16ccn\	e-	.	.	.	.
8F#\	.	.	8d/	.	8a#X/L	.	.	.	8a#X\	-ley-	.	.	.	.
!	!	!	!	!	!	!	!	!	!LO:LB:g=original	!	!	!	!	!
8G\J	X 4	.	8d/J	.	8bn/J	.	.	.	8bn\	-son	.	.	.	.
!	!	!	!	!	!LO:LB:g=original	!	!	!	!	!	!	!	!	!
=59	=59	=59	=59	=59	=59	=59	=59	=59	=59	=59	=59	=59	=59	=59
8E\L	X 6	.	8c/L	.	16.cc\LL	.	.	.	8cc\	Chri-	.	.	.	.
.	.	.	.	.	32ee\JJk	.	.	.	.	.	.	.	.	.
8E\	.	.	8c/	.	8g/L	.	.	.	8g/	-ste	.	.	.	.
8E\J	.	.	8c/J	.	8g#X/J	.	.	.	8g#X/	e-	.	.	.	.
=60	=60	=60	=60	=60	=60	=60	=60	=60	=60	=60	=60	=60	=60	=60
8F\L	.	.	8c/L	.	4a/	.	.	.	4an\	-lej-	.	.	.	.
8F\	.	.	8c/	.	.	.	.	.	.	.	.	.	.	.
8F\J	.	.	8A/J	.	8ff\	.	.	.	8ff\	.	.	.	.	.
=61	=61	=61	=61	=61	=61	=61	=61	=61	=61	=61	=61	=61	=61	=61
!	!	!	!	!	!	!	!	!	!	!	!LO:N:vis=00	!	!	!
!	!	!	!	!	!LO:TUP:a:problem:klamra łukowa bez numeru	!	!LO:N:vis=00	!	!LO:TUP:a:problem:klamra łukowa bez numeru	!	!	!	!	!
8G\L	6 4	.	8G/L	.	24ee\LL	.	1.r	.	24ee\LL	.	1.r	.	.	.
.	.	.	.	.	24dd\	.	.	.	24dd\	.	.	.	.	.
.	.	.	.	.	24cc\JJ	.	.	.	24cc\JJ	.	.	.	.	.
!	!	!	!	!	!LO:TX:a:t=t	!	!	!	!	!	!	!	!	!
8G\	X 6|	.	8fn/	.	4dd\	.	.	.	4ddT\	.	.	.	.	.
8G\J	.	.	8f/J	.	.	.	.	.	.	.	.	.	.	.
!LO:LB:g=original	!	!	!	!	!	!	!	!	!	!	!	!	!	!
=62	=62	=62	=62	=62	=62	=62	=62	=62	=62	=62	=62	=62	=62	=62
!	!	!	!	!	!	!	!	!	!	!	!	!	!LO:N:vis=00	!LO:N:vis=00
8A\L	X 3	.	8e/L	.	4.cc\	.	.	.	4cc\	-son	.	.	1.r	1.r
8A\	.	.	8e/	.	.	.	.	.	.	.	.	.	.	.
8A\J	.	.	8e/J	.	.	.	.	.	8r	.	.	.	.	.
=63	=63	=63	=63	=63	=63	=63	=63	=63	=63	=63	=63	=63	=63	=63
8E\L	X 6	.	8c/L	.	16.cc\LL	.	.	.	8cc\	Chri-	.	.	.	.
.	.	.	.	.	32ee\JJk	.	.	.	.	.	.	.	.	.
8E\	.	.	8c/	.	8g/L	.	.	.	8g\	-ste	.	.	.	.
8E\J	.	.	8c/J	.	8g#X/J	.	.	.	8g#X\	e-	.	.	.	.
=64	=64	=64	=64	=64	=64	=64	=64	=64	=64	=64	=64	=64	=64	=64
8F\L	.	.	8c/L	.	4a/	.	.	.	4a\	-lej-	.	.	.	.
8F\	.	.	8c/	.	.	.	.	.	.	.	.	.	.	.
8F\J	.	.	8c/J	.	8f/	.	.	.	8f/	.	.	.	.	.
=65	=65	=65	=65	=65	=65	=65	=65	=65	=65	=65	=65	=65	=65	=65
!	!	!	!	!	!	!	!LO:N:vis=00	!	!LO:TUP:b:problem:klamra łukowa bez numeru	!	!	!	!	!
8G\L	6 4	.	8c/L	.	24e/LL	.	1.r	.	24e/LL	.	4.r	.	.	.
.	.	.	.	.	24d/	.	.	.	24d/	.	.	.	.	.
.	.	.	.	.	24c/JJ	.	.	.	24c/JJ	.	.	.	.	.
!	!	!	!	!	!LO:TX:a:t=t	!	!	!	!	!	!	!	!	!
8G\	.	.	8c/	.	4d/	.	.	.	4dT/	.	.	.	.	.
8G\J	X 4	.	8Bn/J	.	.	.	.	.	.	.	.	.	.	.
!	!	!	!	!	!	!	!	!	!	!	!LO:LB:g=original	!	!	!
=66	=66	=66	=66	=66	=66	=66	=66	=66	=66	=66	=66	=66	=66	=66
!	!	!	!	!	!LO:TX:a:t=P:problem:mixed beam	!	!	!	!	!	!	!	!LO:N:vis=00	!LO:N:vis=00
8C/L	.	.	8c/L	.	8c/L	.	.	.	8c/	-son	8r	.	1.r	1.r
8E/	.	.	8e/	.	8cc\	.	.	.	8r	.	8cc\	Chri-	.	.
8C/J	.	.	8g/J	.	8ee\J	.	.	.	8r	.	8ee\	-ste	.	.
=67	=67	=67	=67	=67	=67	=67	=67	=67	=67	=67	=67	=67	=67	=67
!LO:TX:a:t=P:problem:mixed beam	!	!	!	!	!	!	!	!	!	!	!	!	!	!
8F\L	X 6	.	8f/L	.	8dd\L	.	.	.	4.r	.	8dd\	e-	.	.
8G\	6 4	.	8e/	.	8cc\	.	.	.	.	.	(>8cc\L	-ley-	.	.
8GG/J	X 4	.	8d/J	.	8bn\J	.	.	.	.	.	8bn\J)	.	.	.
=68	=68	=68	=68	=68	=68	=68	=68	=68	=68	=68	=68	=68	=68	=68
!	!	!	!LO:TX:a:t=P:problem:mixed beam	!	!	!	!	!	!	!	!	!	!	!
4C/	.	.	8e/L	.	8cc\L	.	.	.	8r	.	8cc\	-son'	.	.
.	.	.	8cc\	.	8ee\	.	.	.	8cc\	Chri-	8ee\	Chri-	.	.
!	!	!	!	!	!	!	!	!	!LO:LB:g=original	!	!	!	!	!
8c\	.	.	8ee\J	.	8gg\J	.	.	.	8ee\	-ste	8gg\	-ste	.	.
!	!	!	!LO:LB:g=original	!	!	!	!	!	!	!	!	!	!	!
=69	=69	=69	=69	=69	=69	=69	=69	=69	=69	=69	=69	=69	=69	=69
!LO:TX:a:t=P:problem:mixed beam	!	!	!	!	!	!	!LO:N:vis=00	!	!	!	!	!	!	!
8F\L	X 6	.	8dd\L	.	8ff\L	.	1.r	.	8dd\	e-	8ff\	e-	.	.
8G\	6 4	.	8cc\	.	(>8ee\	.	.	.	(>8cc\L	-lej-	(>8ee\L	-ley-	.	.
8GG/J	X 4	.	8bn\J	.	8dd\J)	.	.	.	8bn\J)	.	8dd\J)	.	.	.
!	!	!	!	!	!LO:LB:g=original	!	!	!	!	!	!	!	!	!
=70	=70	=70	=70	=70	=70	=70	=70	=70	=70	=70	=70	=70	=70	=70
!	!	!	!	!	!	!	!	!	!	!	!	!	!LO:N:vis=00	!LO:N:vis=00
4C/	.	.	8cc/L	.	8ee\L	.	.	.	8cc\	-son	8ee\	-son'	1.r	1.r
.	.	.	8g/	.	8ee\	.	.	.	8g\	Chri-	8ee\	Chri-	.	.
8r	.	.	8a/J	.	8ff\J	.	.	.	8a\	-ste	8ff\	-ste	.	.
=71	=71	=71	=71	=71	=71	=71	=71	=71	=71	=71	=71	=71	=71	=71
8r	.	.	8b-X/L	.	8gg\L	.	.	.	8b-X\	e-	8gg\	e-	.	.
8E\L	X 5-	.	8g/	.	8b-X\	.	.	.	(<8g/L	-ley-	(>8b-X\L	-ley-	.	.
8F\J	X 3	.	8f/J	.	8b-\J	.	.	.	8f/J)	.	8a\J)	.	.	.
=72	=72	=72	=72	=72	=72	=72	=72	=72	=72	=72	=72	=72	=72	=72
4C/	.	.	8e/	.	8g/	.	.	.	8e/	-son	8g\	-son'	.	.
!	!	!	!LO:TUP:b:problem:klamra łukowa bez numeru	!	!LO:TUP:a:problem:klamra łukowa bez numeru	!	!	!	!	!	!	!	!	!
.	.	.	24g/LL	.	24ee\LL	.	.	.	8g/	Chri-	8ee\	Chri-	.	.
.	.	.	24a/	.	24ff\	.	.	.	.	.	.	.	.	.
.	.	.	24b-/JJ	.	24gg\JJ	.	.	.	.	.	.	.	.	.
!	!	!	!LO:TUP:b:problem:klamra łukowa bez numeru	!	!LO:TUP:a:problem:klamra łukowa bez numeru	!	!	!	!	!	!	!	!	!
8r	.	.	24a/LL	.	24ff\LL	.	.	.	8a\	-ste	8ff\	-ste	.	.
.	.	.	24b-/	.	24gg\	.	.	.	.	.	.	.	.	.
.	.	.	24cc/JJ	.	24aa\JJ	.	.	.	.	.	.	.	.	.
=73	=73	=73	=73	=73	=73	=73	=73	=73	=73	=73	=73	=73	=73	=73
!	!	!	!	!	!LO:TX:a:t=P:problem:mixed beam	!	!	!	!	!	!	!	!	!
!	!	!	!	!	!	!	!LO:N:vis=0	!	!	!	!	!	!	!
8r	.	.	8b-/L	.	8gg\L	.	2.r	.	8b-\	e-	8gg\	e-	.	.
8E\L	.	.	8g/	.	8b-/	.	.	.	(<8g/L	-ley-	(>8b-\L	-ley-	.	.
.	6 5	.	.	.	.	.	.	.	.	.	.	.	.	.
8F\J	.	.	8f/J	.	8a\J	.	.	.	8f/J)	.	8a\J)	.	.	.
!LO:LB:g=original	!	!	!	!	!	!	!	!	!	!	!	!	!	!
=74	=74	=74	=74	=74	=74	=74	=74	=74	=74	=74	=74	=74	=74	=74
!LO:TX:a:t=P:problem:mixed beam	!	!	!	!	!	!	!	!	!	!	!	!	!	!
.	.	.	.	.	.	.	.	.	8qqf/	.	8qqa/	.	.	.
!	!	!	!	!	!	!	!	!	!	!	!	!	!LO:N:vis=1	!LO:N:vis=1
8C/L	.	.	4e/	.	4g/	.	.	.	4e/	-son	4g/	-son	4.r	4.r
16c\L	.	.	.	.	.	.	.	.	.	.	.	.	.	.
16B-\	.	.	.	.	.	.	.	.	.	.	.	.	.	.
16A\	.	.	8r	.	8r	.	.	.	8r	.	8r	.	.	.
16G\JJ	.	.	.	.	.	.	.	.	.	.	.	.	.	.
!	!	!	!	!	!	!	!	!	!	!	!LO:LB:g=original	!	!LO:LB:g=original	!LO:LB:g=original
=75	=75	=75	=75	=75	=75	=75	=75	=75	=75	=75	=75	=75	=75	=75
!	!	!	!	!	!	!LO:DY:rj	!	!	!	!	!	!	!	!
!	!	!	!	!	!	!LO:DY:t=f.	!	!	!	!	!	!	!	!
!LO:TX:a:t=Tutti	!	!	!	!	!LO:DY:a	!	!	!	!	!	!	!	!	!
8F\L	.	.	8a/L	.	4.ff\	f	4.F\	Ky-	4.a\	Ky-	4.ff\	Ky-	8f\L	8a\L
8F\	.	.	8a/	.	.	.	.	.	.	.	.	.	8f\	8a\
8F\J	.	.	8a/J	.	.	.	.	.	.	.	.	.	8f\J	8a\J
=76	=76	=76	=76	=76	=76	=76	=76	=76	=76	=76	=76	=76	=76	=76
8E\L	X 6	.	8g/L	.	4.cc\	.	4.E\	-ri-	4.g/	-ri-	4.cc\	-ri-	8c/L	8g\L
8E\	.	.	8g/	.	.	.	.	.	.	.	.	.	8c/	8g\
8E\J	.	.	8g/J	.	.	.	.	.	.	.	.	.	8c/J	8g\J
=77	=77	=77	=77	=77	=77	=77	=77	=77	=77	=77	=77	=77	=77	=77
8D\L	.	.	8f/L	.	4.f/	.	4.D/	-e	4.a\	-e	4.f/	-e	8f\L	8a\L
8D\	.	.	8f/	.	.	.	.	.	.	.	.	.	8f\	8a\
8D\J	.	.	8f/J	.	.	.	.	.	.	.	.	.	8f\J	8a\J
=78	=78	=78	=78	=78	=78	=78	=78	=78	=78	=78	=78	=78	=78	=78
8AA/L	X 6	.	8cc\L	.	4.ff\	.	4.AA/	e-	4.cc\	e-	4.ff\	e-	8f\L	8cc\L
8AA/	.	.	8cc\	.	.	.	.	.	.	.	.	.	8f\	8cc\
8AA/J	.	.	8cc\J	.	.	.	.	.	.	.	.	.	8f\J	8cc\J
!	!	!	!	!	!	!	!	!	!LO:LB:g=original	!	!	!	!	!
=79	=79	=79	=79	=79	=79	=79	=79	=79	=79	=79	=79	=79	=79	=79
!LO:TX:a:t=P:problem:mixed beam	!	!	!	!	!	!	!	!	!	!	!	!	!	!
8BB-\L	X 3	.	8dd\	.	8dd\	.	4.BB-/	-ley-	4f/	-ley-	4.dd\	-ley-	8f\	8f\
!	!	!	!LO:TUP:a:problem:klamra łukowa bez numeru	!	!LO:TUP:a:problem:klamra łukowa bez numeru	!	!	!	!	!	!	!	!	!
8B-\	.	.	24dd\LL	.	24dd\LL	.	.	.	.	.	.	.	8r	8r
.	.	.	24ee\	.	24ee\	.	.	.	.	.	.	.	.	.
.	.	.	24ff\JJ	.	24ff\JJ	.	.	.	.	.	.	.	.	.
!	!	!	!LO:TUP:a:problem:klamra łukowa bez numeru	!	!LO:TUP:a:problem:klamra łukowa bez numeru	!	!	!	!	!	!	!	!	!
8B-\J	X 6	.	24gg\LL	.	24gg\LL	.	.	.	[<8g/	.	.	.	8r	8r
.	.	.	24aa\	.	24aa\	.	.	.	.	.	.	.	.	.
.	.	.	24bb-\JJ	.	24bb-\JJ	.	.	.	.	.	.	.	.	.
=80	=80	=80	=80	=80	=80	=80	=80	=80	=80	=80	=80	=80	=80	=80
8A\L	X 7	.	8cc\	.	8cc\	.	4.AA/	.	8g/]	.	4.cc\	.	8f\	8f\
!	!	!	!LO:TUP:a:problem:klamra łukowa bez numeru	!	!LO:TUP:a:problem:klamra łukowa bez numeru	!	!	!	!	!	!	!	!	!
8A\	X 6	.	24cc\LL	.	24cc\LL	.	.	.	4f/	.	.	.	8r	8r
.	.	.	24dd\	.	24dd\	.	.	.	.	.	.	.	.	.
.	.	.	24ee\JJ	.	24ee\JJ	.	.	.	.	.	.	.	.	.
!	!	!	!LO:TUP:a:problem:klamra łukowa bez numeru	!	!LO:TUP:a:problem:klamra łukowa bez numeru	!	!	!	!	!	!	!	!	!
8A\J	.	.	24ff\LL	.	24ff\LL	.	.	.	.	.	.	.	8r	8r
.	.	.	24gg\	.	24gg\	.	.	.	.	.	.	.	.	.
!	!	!	!	!	!LO:TX:t=P:problem:błąd renderowania - złe wyświetlanie ostatniej szesnastki w takcie	!	!	!	!	!	!	!	!	!
.	.	.	24aa\JJ	.	24aa\JJ	.	.	.	.	.	.	.	.	.
!	!	!	!	!	!LO:LB:g=original	!	!	!	!	!	!	!	!	!
=81	=81	=81	=81	=81	=81	=81	=81	=81	=81	=81	=81	=81	=81	=81
!LO:TX:a:t=P:problem:mixed beam	!	!	!	!	!	!	!	!	!	!	!	!	!	!
.	.	.	8qqcc/	.	.	.	.	.	.	.	.	.	.	.
8G\L	X 7	.	4.b-/	.	4.b-/	.	8GG/	.	8f/	.	4.b-\	.	8r	8r
8c\	X 7	.	.	.	.	.	4C/	.	4et/	.	.	.	8f\L	8b-\L
8C/J	.	.	.	.	.	.	.	.	.	.	.	.	8g\J	8b-\J
=82	=82	=82	=82	=82	=82	=82	=82	=82	=82	=82	=82	=82	=82	=82
!LO:TX:a:t=So.	!	!	!	!	!LO:TX:a:t=P:problem:mixed beam	!	!	!	!	!	!	!	!	!
8F\L	.	.	8a/L	.	8a/L	.	4FF/	-son	4f/	-son	4a\	-son	8f\	8a\
8F\	.	.	8a/	.	8ff\	.	.	.	.	.	.	.	8r	8r
8G\J	X 6	.	8b-/J	.	8ee\J	.	8r	.	8r	.	8r	.	8r	8r
=83	=83	=83	=83	=83	=83	=83	=83	=83	=83	=83	=83	=83	=83	=83
!	!	!	!	!LO:DY:t=p.	!	!	!	!	!	!	!	!	!	!
!	!	!	!	!LO:DY:a	!	!	!LO:N:vis=0	!	!LO:N:vis=0	!	!LO:N:vis=0	!	!	!
4A\	X 5-	.	8cc/L	p	16r	.	2.r	.	2.r	.	2.r	.	8f\	8f\
.	.	.	.	.	16ee-X\	.	.	.	.	.	.	.	.	.
!	!	!	!	!	!	!LO:DY:t=p.	!	!	!	!	!	!	!	!
!	!	!	!	!	!	!LO:DY:a	!	!	!	!	!	!	!	!
.	.	.	.	.	.	p	.	.	.	.	.	.	.	.
.	.	.	8f/	.	8cc#X\L	.	.	.	.	.	.	.	8r	8r
8B-\	.	.	8f/J	.	8dd\J	.	.	.	.	.	.	.	8r	8r
=84	=84	=84	=84	=84	=84	=84	=84	=84	=84	=84	=84	=84	=84	=84
!	!	!	!	!LO:DY:t=f.	!	!LO:DY:t=f.	!	!	!	!	!	!	!	!
!	!	!	!	!LO:DY:a	!	!LO:DY:a	!	!	!	!	!	!	!	!
8G\L	X 4	.	8bn\L	f	8r	f	.	.	.	.	.	.	8g\	8g\
8G\	.	.	8b\	.	8gg\L	.	.	.	.	.	.	.	8r	8r
8A\J	X 6|	.	8cc\J	.	8ff#X\J	.	.	.	.	.	.	.	8r	8r
=85	=85	=85	=85	=85	=85	=85	=85	=85	=85	=85	=85	=85	=85	=85
!	!	!	!	!LO:DY:t=p.	!	!	!	!	!	!	!	!	!	!
!	!	!	!LO:TX:a:t=P:problem:mixed beam	!LO:DY:a	!	!	!	!	!	!	!	!	!	!
8Bn\L	.	.	8dd\L	p	16r	.	4.r	.	4.r	.	4.r	.	8g\	8g\
.	.	.	.	.	16ffn\	.	.	.	.	.	.	.	.	.
!	!	!	!	!	!	!LO:DY:t=p.	!	!	!	!	!	!	!	!
!	!	!	!	!	!	!LO:DY:a	!	!	!	!	!	!	!	!
.	.	.	.	.	.	p	.	.	.	.	.	.	.	.
8B\	.	.	8g/	.	8dd#X\L	.	.	.	.	.	.	.	8r	8r
8c\J	.	.	8g/J	.	8een\J	.	.	.	.	.	.	.	8r	8r
!LO:LB:g=original	!	!	!	!	!	!	!LO:LB:g=original	!	!	!	!	!	!	!
=86	=86	=86	=86	=86	=86	=86	=86	=86	=86	=86	=86	=86	=86	=86
8A\L	.	.	8a\L	.	16.ff\LL	.	4A\	Ky-	4f/	Ky-	4cc\	Ky-	8f\L	8f\L
.	.	.	.	.	32aa\JJk	.	.	.	.	.	.	.	.	.
8A\	.	.	8cc\	.	8cc\L	.	.	.	.	.	.	.	8f\	8f\
8A\J	.	.	8cc#X\J	.	8cc#X\J	.	8A\	-ri-	8f/	-ri-	8cc#X\	-ri-	8f\J	8f\J
=87	=87	=87	=87	=87	=87	=87	=87	=87	=87	=87	=87	=87	=87	=87
8B-X\L	X 3	.	4dd\	.	4dd\	.	4B-\	-e	4f/	-e	4dd\	-e	8f\L	8f\L
8B-\	.	.	.	.	.	.	.	.	.	.	.	.	8f\	8f\
8B-\J	.	.	8bb-\	.	8bb-\	.	8B-\	e-	8f/	e-	8dd\	e-	8b-\J	8dd\J
=88	=88	=88	=88	=88	=88	=88	=88	=88	=88	=88	=88	=88	=88	=88
!	!	!	!LO:TUP:a:problem:klamra łukowa bez numeru	!	!	!	!	!	!LO:TUP:b:problem:klamra łukowa bez numeru	!	!	!	!	!
8c\L	6 4	.	24aa\LL	.	24aa\LL	.	4.c\	-ley-	24f/LL	-ley-	8ccn\	-ley-	8a\	8cc\
.	.	.	24gg\	.	24gg\	.	.	.	24g/	.	.	.	.	.
.	.	.	24ff\JJ	.	24ff\JJ	.	.	.	24a/JJ	.	.	.	.	.
!	!	!	!	!	!	!	!	!	!	!	!LO:TX::t=t	!	!	!LO:TX:a:t=t
8c\	7 5	.	4ggT\	.	4ggT\	.	.	.	4g/	.	4b-\	.	4gT\	4b-\
8c\J	.	.	.	.	.	.	.	.	.	.	.	.	.	.
!	!	!	!	!	!	!	!	!	!	!	!	!	!LO:LB:g=original	!LO:LB:g=original
=89	=89	=89	=89	=89	=89	=89	=89	=89	=89	=89	=89	=89	=89	=89
.	.	.	.	.	.	.	.	.	.	.	8qqb-/	.	.	.
8d\L	X 3	.	4.ff\	.	4ff\	.	4d\	-son	4f/	-son	4a\	-son	8f\L	8a\L
8d\	.	.	.	.	.	.	.	.	.	.	.	.	8f\	8a\
8d\J	.	.	.	.	8r	.	8r	.	8r	.	8r	.	8f\J	8a\J
=90	=90	=90	=90	=90	=90	=90	=90	=90	=90	=90	=90	=90	=90	=90
8A\L	X 6	.	16.ff\LL	.	16.ff\LL	.	4A\	Ky-	4f/	Ky-	4cc\	Ky-	4f\	4f\
.	.	.	32aa\JJk	.	32aa\JJk	.	.	.	.	.	.	.	.	.
8A\	.	.	8cc\L	.	8cc\L	.	.	.	.	.	.	.	.	.
8A\J	.	.	8cc#X\J	.	8cc#X\J	.	8A\	-ri-	8f/	-ri-	8cc#X\	-ri-	8r	8r
!	!	!	!	!	!	!	!	!	!	!	!LO:LB:g=original	!	!	!
=91	=91	=91	=91	=91	=91	=91	=91	=91	=91	=91	=91	=91	=91	=91
.	.	.	.	.	.	.	.	.	.	.	8qqcc	.	.	.
8B-\L	.	.	4dd\	.	4dd\	.	4B-\	-e	4f/	-e	4dd\	-e	8r	8r
8B-\	.	.	.	.	.	.	.	.	.	.	.	.	8r	8r
8B-\J	.	.	8b-\	.	8b-\	.	8B-\	e-	8f/	e-	8b-\	e-	8g\	8b-\
!	!	!	!	!	!LO:LB:g=origina	!	!	!	!	!	!	!	!	!
=92	=92	=92	=92	=92	=92	=92	=92	=92	=92	=92	=92	=92	=92	=92
!LO:TX:a:t=P:problem:mixed beam	!	!	!	!	!	!	!	!	!	!	!	!	!	!
!	!	!	!LO:TUP:b:problem:klamra łukowa bez numeru	!	!LO:TUP:b:problem:klamra łukowa bez numeru	!	!	!	!	!	!	!	!	!
8c\L	6 4	.	24a/LL	.	24a/LL	.	4.c\	-ley-	4f/	-ley-	8a\	-ley-	8f\L	8a\
.	.	.	24g/	.	24g/	.	.	.	.	.	.	.	.	.
.	.	.	24f/JJ	.	24f/JJ	.	.	.	.	.	.	.	.	.
!	!	!	!	!	!	!	!	!	!	!	!	!	!	!LO:TX:a:t=t
8c\	.	.	4gT/	.	4gT/	.	.	.	.	.	4g\	.	8c\	4g\
8C/J	X 3	.	.	.	.	.	.	.	8e/	.	.	.	8c\J	.
!	!	!	!LO:LB:g=original	!	!	!	!	!	!	!	!	!	!	!
=93	=93	=93	=93	=93	=93	=93	=93	=93	=93	=93	=93	=93	=93	=93
!	!	!	!LO:TX:a:t=P:problem:mixed beam	!	!LO:TX:a:t=P:problem:mixed beam	!	!	!	!	!	!	!	!	!
8F\	.	.	8f/L	.	8f/L	.	4F\	-son	8f/	-son	8a\	-son	8A/	4f\
8r	.	.	8ff\	.	8aa\	.	.	.	8r	.	8r	.	8r	.
8r	.	.	8gg\J	.	8bb-\J	.	8r	.	8r	.	8r	.	8r	8r
!	!	!	!	!	!	!	!	!	!LO:LB:g=original	!	!	!	!	!
=94	=94	=94	=94	=94	=94	=94	=94	=94	=94	=94	=94	=94	=94	=94
!	!	!	!LO:TX:a:t=P:problem:mixed beam	!	!	!	!	!	!	!	!	!	!	!
8r	.	.	8aa\L	.	8ccc\L	.	8r	.	8r	.	8r	.	8r	8r
8F\L	.	.	8a/	.	8ff\	.	8F\	e-	8a\	e-	8ff\	e-	8a\L	8cc\L
8C\J	.	.	8g/J	.	8ee\J	.	8C/	-ley-	8g\	-ley-	8ee\	-ley-	8g\J	8b-\J
=95	=95	=95	=95	=95	=95	=95	=95	=95	=95	=95	=95	=95	=95	=95
8FF/	.	.	8a/L	.	8ff\L	.	8FF/	-son	8a\	-son	8ff\	-son	8r	8a\
8r	.	.	8f/	.	8a\	.	8r	.	8r	.	8r	.	8f\	8r
8r	.	.	8g/J	.	8b-\J	.	8r	.	8r	.	8r	.	8r	8r
=96	=96	=96	=96	=96	=96	=96	=96	=96	=96	=96	=96	=96	=96	=96
8r	.	.	8a/L	.	8cc/L	.	8r	.	8r	.	8r	.	8r	8r
8F\L	.	.	8c/	.	8f/	.	8F\	e-	8f/	e-	8a\	e-	8f\L	8a\L
8C\J	.	.	8B-/J	.	8e/J	.	8C/	-ley-	8e/	-ley-	8g\	-ley-	8c\J	8g\J
=97	=97	=97	=97	=97	=97	=97	=97	=97	=97	=97	=97	=97	=97	=97
8FF/	.	.	8A/	.	8f/	.	8FF/	-son	8f/	-son	8a\	-son	8A/	8f\
8r	.	.	8r	.	8r	.	8r	.	8r	.	8r	.	8r	8r
8r	.	.	8r	.	8r	.	8r	.	8r	.	8r	.	8r	8r
==	==	==	==	==	==	==	==	==	==	==	==	==	==	==
*-	*-	*-	*-	*-	*-	*-	*-	*-	*-	*-	*-	*-	*-	*-
!!!system-decoration: [(s1,s2)][(s3,s4,s5)][(s6,s7)]s8
!!!RDF**kern: > = above
!!!RDF**kern: < = below
!!!EED: Antoni Szymański
!!!EST: 2020-10-06
!!!ENC: Andrzej Kubiczek
!!!END: 2020-05-19
